build/images/common/03.svg

<svg width="53" height="37" viewBox="0 0 53 37" fill="none" xmlns="http://www.w3.org/2000/svg">
<path d="M25.12 14.936C25.12 17.752 24.576 20.264 23.488 22.472C22.432 24.648 20.96 26.36 19.072 27.608C17.216 28.856 15.104 29.48 12.736 29.48C10.368 29.48 8.24 28.856 6.352 27.608C4.496 26.36 3.024 24.648 1.936 22.472C0.88 20.264 0.352 17.752 0.352 14.936C0.352 12.12 0.88 9.624 1.936 7.448C3.024 5.24 4.496 3.512 6.352 2.264C8.24 0.983999 10.368 0.344 12.736 0.344C15.104 0.344 17.216 0.983999 19.072 2.264C20.96 3.512 22.432 5.24 23.488 7.448C24.576 9.624 25.12 12.12 25.12 14.936ZM18.64 14.936C18.64 13.208 18.384 11.704 17.872 10.424C17.392 9.112 16.704 8.088 15.808 7.352C14.912 6.616 13.888 6.248 12.736 6.248C11.552 6.248 10.512 6.616 9.616 7.352C8.72 8.088 8.016 9.112 7.504 10.424C7.024 11.704 6.784 13.208 6.784 14.936C6.784 16.664 7.024 18.168 7.504 19.448C8.016 20.728 8.72 21.736 9.616 22.472C10.512 23.208 11.552 23.576 12.736 23.576C13.888 23.576 14.896 23.208 15.76 22.472C16.656 21.736 17.36 20.728 17.872 19.448C18.384 18.136 18.64 16.632 18.64 14.936ZM45.7724 17.672C47.1164 17.896 48.2844 18.408 49.2764 19.208C50.2684 19.976 51.0364 20.968 51.5804 22.184C52.1564 23.4 52.4444 24.744 52.4444 26.216C52.4444 28.2 51.9324 29.928 50.9084 31.4C49.8844 32.872 48.4284 34.008 46.5404 34.808C44.6844 35.64 42.4924 36.056 39.9644 36.056C37.5324 36.056 35.3724 35.656 33.4844 34.856C31.6284 34.088 30.0764 32.952 28.8284 31.448L32.4764 26.888C33.3084 27.912 34.3004 28.712 35.4524 29.288C36.6364 29.896 38.0764 30.2 39.7724 30.2C41.7244 30.2 43.2124 29.8 44.2364 29C45.2604 28.232 45.7724 27.064 45.7724 25.496C45.7724 23.832 45.1804 22.552 43.9964 21.656C42.8124 20.76 41.0204 20.312 38.6204 20.312H37.2764V15.512H38.7644C40.7164 15.512 42.2364 15.064 43.3244 14.168C44.4444 13.272 45.0044 12.152 45.0044 10.808C45.0044 9.944 44.7964 9.224 44.3804 8.648C43.9644 8.072 43.3884 7.64 42.6524 7.352C41.9484 7.064 41.1164 6.92 40.1564 6.92C38.7164 6.92 37.4044 7.256 36.2204 7.928C35.0364 8.6 34.0764 9.544 33.3404 10.76L29.3084 6.248C29.9804 5.256 30.8924 4.408 32.0444 3.704C33.2284 2.968 34.5724 2.392 36.0764 1.976C37.6124 1.56 39.2124 1.352 40.8764 1.352C43.0524 1.352 44.9564 1.704 46.5884 2.408C48.2524 3.112 49.5484 4.104 50.4764 5.384C51.4044 6.664 51.8684 8.152 51.8684 9.848C51.8684 11.096 51.6124 12.28 51.1004 13.4C50.5884 14.52 49.8684 15.464 48.9404 16.232C48.0444 16.968 46.9884 17.448 45.7724 17.672Z" fill="#FCAA23"/>
</svg>

<svg width="53" height="37" fill="none" xmlns="http://www.w3.org/2000/svg"><path d="M25.12 14.936c0 2.816-.544 5.328-1.632 7.536-1.056 2.176-2.528 3.888-4.416 5.136-1.856 1.248-3.968 1.872-6.336 1.872-2.368 0-4.496-.624-6.384-1.872-1.856-1.248-3.328-2.96-4.416-5.136C.88 20.264.352 17.752.352 14.936S.88 9.624 1.936 7.448c1.088-2.208 2.56-3.936 4.416-5.184C8.24.984 10.368.344 12.736.344c2.368 0 4.48.64 6.336 1.92 1.888 1.248 3.36 2.976 4.416 5.184 1.088 2.176 1.632 4.672 1.632 7.488zm-6.48 0c0-1.728-.256-3.232-.768-4.512-.48-1.312-1.168-2.336-2.064-3.072a4.705 4.705 0 00-3.072-1.104c-1.184 0-2.224.368-3.12 1.104-.896.736-1.6 1.76-2.112 3.072-.48 1.28-.72 2.784-.72 4.512 0 1.728.24 3.232.72 4.512.512 1.28 1.216 2.288 2.112 3.024.896.736 1.936 1.104 3.12 1.104 1.152 0 2.16-.368 3.024-1.104.896-.736 1.6-1.744 2.112-3.024.512-1.312.768-2.816.768-4.512zm27.132 2.736c1.344.224 2.512.736 3.504 1.536.992.768 1.76 1.76 2.304 2.976.576 1.216.864 2.56.864 4.032 0 1.984-.512 3.712-1.536 5.184s-2.48 2.608-4.368 3.408c-1.856.832-4.048 1.248-6.576 1.248-2.432 0-4.592-.4-6.48-1.2-1.856-.768-3.408-1.904-4.656-3.408l3.648-4.56a8.968 8.968 0 002.976 2.4c1.184.608 2.624.912 4.32.912 1.952 0 3.44-.4 4.464-1.2 1.024-.768 1.536-1.936 1.536-3.504 0-1.664-.592-2.944-1.776-3.84-1.184-.896-2.976-1.344-5.376-1.344h-1.344v-4.8h1.488c1.952 0 3.472-.448 4.56-1.344 1.12-.896 1.68-2.016 1.68-3.36 0-.864-.208-1.584-.624-2.16-.416-.576-.992-1.008-1.728-1.296-.704-.288-1.536-.432-2.496-.432-1.44 0-2.752.336-3.936 1.008-1.184.672-2.144 1.616-2.88 2.832l-4.032-4.512c.672-.992 1.584-1.84 2.736-2.544 1.184-.736 2.528-1.312 4.032-1.728a18.281 18.281 0 014.8-.624c2.176 0 4.08.352 5.712 1.056 1.664.704 2.96 1.696 3.888 2.976.928 1.28 1.392 2.768 1.392 4.464A8.444 8.444 0 0151.1 13.4a7.872 7.872 0 01-2.16 2.832c-.896.736-1.952 1.216-3.168 1.44z" fill="#FCAA23"/></svg>
